!!!SOCIAL_FUNCTION:	songs with treatment of the sick
!!!PDT:	1943
!!!OTL: No_10_An_Appeal_to_the_Deer.krn
!!!REG: British Columbia
**kern
*staff1
=1-
*clefF4
*k[f#c#g#d#a#]
*M3/4
2r
8r
8G#\
=2
8G#\L
8G#\J
8G#\L
8G#\J
16G#\
8.r
=3||
*M2/4
8B\L
16A#\L
16G#\JJ
8G#\L
8G#\J
=4
8G#\L
8G#\J
16G#\
8.r
=5
8B\L
16A#\L
16G#\JJ
8G#\L
16G#\L
16G#\JJ
=6
8G#\L
8G#\J
16G#\
8.r
=7
8B\L
8G#\J
8G#\L
8G#\J
=8
8G#\L
8G#\J
16G#\
8.r
=9
8G#\L
8G#\J
8G#\L
16G#\L
16G#\JJ
=10
8G#\L
8G#\J
16G#\
8.r
=11
8B\L
16B\L
16G#\JJ
16G#\LL
16G#\J
8G#\J
=12
8G#\L
8G#\J
16G#\
8.r
=13
8B\L
8G#\J
8G#\L
8G#\J
=14
8G#\L
8G#\J
16G#\
8.r
=15
8B\L
16G#\L
16G#\JJ
8G#\L
16G#\L
16G#\JJ
=16
8G#\L
8G#\J
16G#\
8.r
=17
2r
=18
8G#\L
8G#\J
8G#\L
8G#\J
=19
8G#\L
8G#\J
16G#\
8.r
=20
8A#\L
8G#\J
8G#\L
8G#\J
=21
16G#\LL
16G#\J
8G#\J
16G#\
8.r
=22
8A#\L
8G#\J
16A#\LL
16A#\J
8G#\J
=23
8G#\L
8G#\J
16G#\
8.r
=24
8A#\L
16G#\L
16G#\JJ
16A#\LL
16A#\J
8G#\J
=25
8G#\L
8G#\J
16G#\
8.r
=26
8A#\L
16G#\L
16G#\JJ
16A#\LL
16A#\J
8G#\J
=27
8G#\L
8G#\J
16G#\
8.r
=28
8A#\L
16G#\L
16G#\JJ
8G#\L
16G#\L
16E\JJ
=29
8G#\L
8G#\J
16G#\
8.r
=30
8A#\L
8G#\J
16A#\LL
16A#\J
8G#\J
=31
8G#\L
8G#\J
16G#\
8.r
=32
8A#\L
8G#\J
8G#\L
8G#\J
=33
8G#\L
8G#\J
8G#\
8r
=34
8A#\L
8G#\J
8G#\L
8G#\J
=35
8G#\L
8G#\J
8G#\
8r
==
*-
